X: 13085
T: Fiona's
R: reel
M: 4/4
K: Gmajor
DG G/G/G DCB,G,|A,B,CD EFGE|DG G/G/G BGAc|Bdgd edgd|
BG G/G/G DCB,G,|A,B,CD EFGE|DGGA {d}B/A/B Ac|1 BdAc BGGE:|2 BdAc BGGB||
|:dg{a}gf gdBd|ea b/a/g af{a}ge|d g{a}g{f}g dcBc|A=FcF dFcA|
dg{a}gf gdBd|ea b/a/g a2 ga|bgaf {a}gedB|1 {d}cBAc BGGB:|2 {d}cBAc BG G2||

